svg/planning-center-people-light.svg

<svg xmlns="http://www.w3.org/2000/svg" xml:space="preserve" viewBox="0 0 512 512"><path d="M256 0C51.3 0 0 51.2 0 256s51.2 256 256 256 256-51.2 256-256S460.7 0 256 0m-47.1 146.3c28.7 0 51.9 23.2 52 51.9s-23.2 51.9-51.9 52-52-23.2-52-51.9 23.2-52 51.9-52m78.7 219.4H129.8v-47.3c0-26.1 21.2-47.3 47.4-47.3h63.1c26.1 0 47.3 21.2 47.3 47.3zm40.6-188.2c21.5 0 38.9 17.4 38.9 38.9s-17.4 38.9-38.9 38.9-38.9-17.4-38.9-38.9 17.5-38.9 38.9-38.9m54.1 156.6h-78.9v-15.8c.1-8.5-1.7-16.9-5.2-24.6-.4-1.3-.9-2.5-1.6-3.6-.5-1-1-1.9-1.6-2.9-.7-1.4-1.5-2.8-2.4-4.1 5.4-7.6 14.1-12.1 23.3-12.2h37.9c15.7 0 28.4 12.7 28.4 28.4v34.8z" style="fill:#fff"/></svg>

<?xml version="1.0" encoding="utf-8"?>
<!-- Generator: Adobe Illustrator 28.2.0, SVG Export Plug-In . SVG Version: 6.00 Build 0)  -->
<svg version="1.1" id="Layer_1" xmlns="http://www.w3.org/2000/svg" xmlns:xlink="http://www.w3.org/1999/xlink" x="0px" y="0px"
	 viewBox="0 0 512 512" style="enable-background:new 0 0 512 512;" xml:space="preserve">
<style type="text/css">
	.st0{fill:#FFFFFF;}
</style>
<path class="st0" d="M256,0C51.3,0,0,51.2,0,256s51.2,256,256,256s256-51.2,256-256S460.7,0,256,0z M208.9,146.3
	c28.7,0,51.9,23.2,52,51.9s-23.2,51.9-51.9,52S157,227,157,198.3C157,169.6,180.2,146.3,208.9,146.3z M287.6,365.7H129.8l0-47.3
	c0,0,0,0,0,0c0-26.1,21.2-47.3,47.4-47.3h63.1c26.1,0,47.3,21.2,47.3,47.3V365.7z M328.2,177.5L328.2,177.5
	c21.5,0,38.9,17.4,38.9,38.9s-17.4,38.9-38.9,38.9c-21.5,0-38.9-17.4-38.9-38.9C289.3,194.9,306.8,177.5,328.2,177.5z M382.3,334.1
	h-78.9v-15.8c0.1-8.5-1.7-16.9-5.2-24.6c-0.4-1.3-0.9-2.5-1.6-3.6c-0.5-1-1-1.9-1.6-2.9c-0.7-1.4-1.5-2.8-2.4-4.1
	c5.4-7.6,14.1-12.1,23.3-12.2h37.9c15.7,0,28.4,12.7,28.4,28.4V334.1z"/>
</svg>
